X: 1
T: Pera stous pera kabous    [Bm]
R: fast hasapikos, hora
O: Greece
Z: 1998 by John Chambers <jc@trillian.mit.edu> http://trillian.mit.edu/~jc/music/
M: 2/4
L: 1/8
K: Bm
|: F \
| "Bm"BB Bc | d2 dc | de fg | f2 ff | "Em"ee e/d/c/d/ | e4 fg | "F7"fe dc |1 "Bm"d3 :|2 "Bm"B3 ||
|: f- \
| "B7"bz f2 | "Em"g/f/e- ef/g/ | "F7"fe  d/c/d/e/ | "Bm"f3f- \
| "B7"bz f2 | "Em"g/f/e- ef/g/ | "F7"fe  dc | "Bm"B3 :|
